X: 16107
T: Green Garters
R: reel
M: 4/4
K: Dmajor
d2 fd Adfd|d2 fa gece|d2 fd Adfd|eA (3Bcd efge|
d2 fd Adfd|d2 fa gece|d2 fd Ad f2|eA (3Bcd efge||
a3b afdf|a2 fd efge|a3b afdf|eA (3Bcd efge|
a3b afdf|a2 fd efge|afge fdec|ABcd efge||

